X: 120
T: Ay Büyürken Sularda
C: Alâeddin Yavaşca
O: Turkey
F: http://compmusic.upf.edu/node/140
N: yegah--sarki--duyek--ay_buyurken--alaeddin_yavasca
N: makam= yegah
N: form= sarki
N: usul= duyek = 8/4
M: 8/4
L: 1/16
K: C _2/4B ^f  
Q: 1/4=102
%%MIDI tuningsystem comma53
z2 A4 d2 d8  | e2 d2 ^3/4c2 =B2 cd cB A2 A2  | \
w:  Ay  bü yür  |  ken  *  *  *  *  *  *  *  *  su  | 
d6 e2 ^3/4f2 a2 f2 e2  | .d2 d4 g2 ^3/4f3/2g/ f3/2g/ fg fe  | 
w:  lar *  da   |  *  ür pe rir   | 
a2 ^3/4f2 e2 d2 ^3/4c=B A2 B2 c2  | \
w:  *  iç *  *  *  *  *  le ni  | 
d6 cB AG ^3/4FE D4  | z2 A4 d2 d8  | 
w:  rim   SAZ  |  Ay  bü yür  | 
e2 d2 ^3/4c2 =B2 cd cB A2 A2  | d6 e2 ^3/4f2 a2 f2 e2  | \
w:  ken  *  *  *  *  *  *  *  *  su  |  lar *  da   | 
.d2 d4 g2 ^3/4f3/2g/ f3/2g/ fg fe  | 
w:  *  ür pe rir   | 
a2 ^3/4f2 e2 d2 ^3/4c=B A2 B2 c2  | \
w:  *  iç *  *  *  *  *  le ni  | 
d6 A2 =B2 ^c2 d4  | z2 d4 c=B A6 A2  | \
w:  rim   SAZ  |  İş te  *  böy le   | 
e2 d2 c2 B2 A2 {B}AG ^3/4FE F2  | 
w:  her_ ak *  *  şam   | 
z4 A2 A2 d8  | e2 d2 c2 B2 A2 G2 ^3/4F2 A2  | \
w:  ü zü lür   |  dert *  *  *  *  *  le ni  | 
G2 {A}G^3/4F E4 z2 =B2 A2 G2  | ^3/4F3/2E/ D2 ^3/4C2 E2 D4 d4  | 
w:  rim  *  *  *  *  dert  |  *  *  *  le ni rim   SAZ  | 
z2 d4 c=B A6 A2  | e2 d2 c2 B2 A2 {B}AG ^3/4FE F2  | \
w:  İş te  *  böy le   |  her_ ak *  *  şam   | 
z4 A2 A2 d8  | e2 d2 c2 B2 A2 G2 ^3/4F2 A2  | 
w:  ü zü lür   |  dert *  *  *  *  *  le ni  | 
G2 {A}G^3/4F E4 z2 =B2 A2 G2  | ^3/4F3/2E/ D2 ^3/4C2 E2 D4 a4  | \
w:  rim  *  *  *  *  dert  |  *  *  *  le ni rim   SAZ  | 
g2 a4 a2 a6 ^3/4f2  | g4 a8-a2 z2  | 
w:  Sen_ ol ma san  ya  |  nım da   | 
a2 g8-g2 ^3/4fe f2  | c'2 =b2 a2 g2 ^3/4f3e .d4  | \
w:  o  an   |  o  an   | 
^3/4f2 a2 g2 {a}gf f8  | a2 ^3/4f4 d2 f2 g2 a4  | 
w:  ö le bi *  li *  rim    |  SAZ  | 
g2 a4 a2 a6 ^3/4f2  | g4 a8-a2 z2  | \
w:  Sen_ ol ma san  ya  |  nım da   | 
g2 e8-e2 e2 ^3/4fg  | ^3/4fe d8-d2 z4  | \
w:  o  an   |  o  *  an   | 
d2 ^3/4c2 =B2 c2 d8  | 
w:  ö le bi li rim    | 
d2 =B4 A2 B2 ^3/4c2 d4  | z2 d4 c=B A6 A2  | \
w:  SAZ  |  İş te  *  böy le   | 
e2 d2 c2 B2 A2 {B}AG ^3/4FE F2  | 
w:  her_ ak *  *  şam   | 
z4 A2 A2 d8  | e2 d2 c2 B2 A2 G2 ^3/4F2 A2  | \
w:  ü zü lür   |  dert *  *  *  *  *  le ni  | 
G2 {A}G^3/4F E4 z2 =B2 A2 G2  | ^3/4F3/2E/ D2 ^3/4C2 E2 D4 d4  | 
w:  rim  *  *  *  *  dert  |  *  *  *  le ni rim   SAZ  | 
z2 d4 c=B A6 A2  | e2 d2 c2 B2 A2 {B}AG ^3/4FE F2  | \
w:  İş te  *  böy le   |  her_ ak *  *  şam   | 
z4 A2 A2 d8  | e2 d2 c2 B2 A2 G2 ^3/4F2 A2  | 
w:  ü zü lür   |  dert *  *  *  *  *  le ni  | 
G2 {A}G^3/4F E4 z2 =B2 A2 G2  | ^3/4F3/2E/ D2 ^3/4C2 E2 D4 |
w:  rim  *  *  *  *  dert  |  *  *  *  le ni rim    | 


